X:1
T:XV Motetten für den Männerchor
T:Der Mensch lebt und bestehet
T:Hans Georg Nägeli 
T:Matthias Claudius
T:Der Mensch lebt und bestehet
T:5. Motette aus XV Motetten für den Männerchor
T:CPDL - Creative Commons Attribution Non Commercial 3.0
T:CPDL - Creative Commons Attribution Non Commercial 3.0
T:CPDL - Creative Commons Attribution Non Commercial 3.0
T:CPDL - Creative Commons Attribution Non Commercial 3.0
C:Hans Georg Nägeli
Z:Matthias Claudius
Z:CPDL - Creative Commons Attribution Non Commercial 3.0
%%score [ ( 1 2 ) 3 4 ]
L:1/8
Q:1/4=88
M:4/4
K:D
V:1 treble-8 nm="Tenor"
V:2 treble-8 
V:3 bass nm="Bass 1"
V:4 bass nm="Bass 2"
V:1
"^Moderato"!mf! F2 | A2 d2 c2 d2 | B4 A2 F2 | G2 B2 A2 G2 | F6 A2 |"^cresc." d2 f2 e2 d2 | %6
w: Der|Mensch lebt und be-|ste- het nur|ei- ne klei- ne|Zeit, und|al- le Welt ver-|
 (c3 B) A2 A2 | B2 c2 d3 d | c6!f!!f! A2 | d3 A A2 F2 | B4 G4 | B2 B2 e3 e | e4 c2 f2 | %13
w: ge- * het mit|ih- rer Herr- lich-|keit. Nur|ei- ner, der ist|e- wig|und an al- len|En- den, und|
"^dim." d2 d2 d2 B2 |!p!!p! A4 F2 z2 |[Q:1/4=100]"^Bewegter" z8 |!f!!f! f3 f f2 e2 | z8 | %18
w: wir in sei- nen|Hän- den.||Hal- le- lu- ja!||
 d3 d d2 c2 | z8 | g3 g g2 f2 | z8 |!p! c2 e2 (d2 B2 | A3 G) F2 z2 |!f!!f! f3 f f2 e2 | %25
w: Hal- le- lu- ja!||Hal- le- lu- ja!||ist barm- her- *|* * zig.|Hal- le- lu- ja!|
 d2 c2 B2 A2 | (B2 c)d ef ge | (d2 c2) d2 z2 |!f!!f! B4 A2 z2 |!p! B4 A2 z2 |!f!!f! f3 f f2 e2 | %31
w: A- men, A- men!|Hal- * le- lu- * ja! *|A- * men!|A- men!|A- men!|Eh- re sei- nem|
 d2 c2 B2 A2 |"^cresc." (B2 c)d ef ge | (c2 d)e fg af | (d2 g2 f2) e2 | (d4 c4) | d6 |] %37
w: gro- ßen Na- men!|Hal- * le- lu- * ja! *|Hal- * le- lu- * ja! *|A- * * men!|A- *|men!|
V:2
 D2 | F2 A2 G2 F2 | G4 F2 D2 | D2 G2 E2 C2 | D6 A2 | A2 d2 B2 ^G2 | (E3 D) C2 E2 | F^G A2 A2 G2 | %8
 A6 A2 | A3 F F2 D2 | G4 D4 | G2 B2 B3 B | c4 A2 c2 | d2 A2 B2 G2 | E4 D2 x2 | x8 | A3 d d2 c2 | %17
 x8 | F3 B B2 A2 | x8 | d3 d d2 d2 | x8 | A2 =G2 (F2 G2 | E4) D2 x2 | d3 d d2 c2 | B2 A2 G2 F2 | %26
 B3 B B2 B2 | A4 A2 x2 | G4 F2 x2 | G4 F2 x2 | d3 d d2 c2 | B2 A2 G2 F2 | B3 B B2 B2 | c3 c c2 c2 | %34
 d6 B2 | A8 | A6 |] %37
V:3
!mf! D,2 | D,2 F,2 E,2 D,2 | D,4 D,2 D,2 | D,2 D,2 C,2 E,2 | F,6 F,2 |"^cresc." F,2 F,2 ^G,2 B,2 | %6
w: Der|Mensch lebt und be-|ste- het nur|ei- ne klei- ne|Zeit, und|al- le Welt ver-|
 (A,3 ^G,) A,2 A,2 | F,2 E,2 F,2 E,2 | E,6!f! A,2 | F,3 D, D,2 D,2 | D,4 B,,4 | D,2 D,2 E,3 E, | %12
w: ge- * het mit|ih- rer Herr- lich-|keit. Nur|ei- ner, der ist|e- wig|und an al- len|
 A,4 A,2 F,2 |"^dim." F,2 F,2 D,2 D,2 |!p! C,4 D,2 z2 | z8 |!f! D,3 F, A,2 A,2 | z8 | %18
w: En- den, und|wir in sei- nen|||||
 B,,3 D, F,2 F,2 | z8 | B,3 B, B,2 A,2 | z8 |!p! E,2 C,2 (D,4 | E,4) F,2 z2 |!f! A,3 A, A,2 A,2 | %25
w: ||||||Hal- le- lu- ja!|
 F,2 F,2 D,2 D,2 | (D,2 E,)F, G,A, B,G, | (F,2 G,2) F,2 z2 |!f! D,4 D,2 z2 |!p! D,4 D,2 z2 | %30
w: A- men, A- men!|Hal- * le- lu- * ja! *|A- * men!|A- men!|A- men!|
!f! A,3 A, A,2 A,2 | F,2 F,2 D,2 D,2 |"^cresc." (D,2 E,)F, G,A, B,G, | (E,2 F,)G, A,B, CA, | %34
w: Eh- re sei- nem|gro- ßen Na- men!|Hal- * le lu- * ja! *|Hal- * le- lu- * ja! *|
 (F,2 G,2 A,2) B,G, | (F,4 G,4) | F,6 |] %37
w: A- * * men! *|A- *|men!|
V:4
!mf! D,2 | D,2 D,2 D,2 D,2 | (G,,2 B,,2) D,2 D,2 | B,,2 G,,2 A,,2 A,,2 | D,6 D,2 | %5
w: |||||
"^cresc." D,2 B,,2 E,2 E,2 | (A,,3 B,,) C,2 C,2 | D,2 C,2 B,,2 B,,2 | A,,6!f! A,2 | %9
w: ||||
 D,3 D, D,2 D,2 | G,,4 G,,4 | G,,2 G,,2 ^G,,3 G,, | A,,4 A,,2 ^A,,2 |"^dim." B,,2 F,,2 G,,2 G,,2 | %14
w: |||||
!p! A,,4 D,2!f! A,,2 | D,2 F,>G, A,2 A,,2 | z4 z2 A,,2 | B,,2 D,>E, F,>G, F,2 | z4 z2 F,2 | %19
w: Hän- den. Und|der ist all- wis- send,|und|der ist _ hei- * lig,|und|
 G,2 B,>C D2 D,2 | G,,3 B,, D,2 D,2 |!p! D,2 ^G,,2 (A,,4- | A,,4 B,,4 | C,4) D,2 z2 | %24
w: der ist all- mäch- tig,|Hal- le- lu- ja!|ist barm- her-||* zig.|
!f! D,3 F, A,2 A,,2 | B,,2 F,,2 G,,2 D,2 | G,,3 G,, G,,2 G,,2 | A,,4 D,2 z2 |!f! G,,4 D,2 z2 | %29
w: |||||
!p! G,,4 D,2 z2 |!f! D,3 F, A,2 A,,2 | B,,2 F,,2 G,,2 D,2 |"^cresc." G,,3 G,, G,,2 G,,2 | %33
w: ||||
 A,,3 A,, A,,2 A,,2 | (B,,4 A,,2) G,,2 | A,,8 | D,6 |] %37
w: ||||

